icons/KeyboardCommand_filled.svg

<svg width="24" height="24" viewBox="0 0 24 24" fill="none" xmlns="http://www.w3.org/2000/svg">
<path fill-rule="evenodd" clip-rule="evenodd" d="M6.5,5.25c-0.69036,0 -1.25,0.55964 -1.25,1.25c0,0.69036 0.55964,1.25 1.25,1.25h1.25v-1.25c0,-0.69036 -0.55964,-1.25 -1.25,-1.25zM13.75,7.75v-1.25c0,-2.07107 1.6789,-3.75 3.75,-3.75c2.0711,0 3.75,1.67893 3.75,3.75c0,2.07107 -1.6789,3.75 -3.75,3.75h-1.25v3.5h1.25c2.0711,0 3.75,1.6789 3.75,3.75c0,2.0711 -1.6789,3.75 -3.75,3.75c-2.0711,0 -3.75,-1.6789 -3.75,-3.75v-1.25h-3.5v1.25c0,2.0711 -1.67893,3.75 -3.75,3.75c-2.07107,0 -3.75,-1.6789 -3.75,-3.75c0,-2.0711 1.67893,-3.75 3.75,-3.75h1.25v-3.5h-1.25c-2.07107,0 -3.75,-1.67893 -3.75,-3.75c0,-2.07107 1.67893,-3.75 3.75,-3.75c2.07107,0 3.75,1.67893 3.75,3.75v1.25zM10.25,10.25v3.5h3.5v-3.5zM16.25,7.75h1.25c0.6904,0 1.25,-0.55964 1.25,-1.25c0,-0.69036 -0.5596,-1.25 -1.25,-1.25c-0.6904,0 -1.25,0.55964 -1.25,1.25zM16.25,16.25v1.25c0,0.6904 0.5596,1.25 1.25,1.25c0.6904,0 1.25,-0.5596 1.25,-1.25c0,-0.6904 -0.5596,-1.25 -1.25,-1.25zM7.75,16.25h-1.25c-0.69036,0 -1.25,0.5596 -1.25,1.25c0,0.6904 0.55964,1.25 1.25,1.25c0.69036,0 1.25,-0.5596 1.25,-1.25z" fill="#002B51"/>
</svg>

<svg width="24" height="24" viewBox="0 0 24 24" fill="none" xmlns="http://www.w3.org/2000/svg">
<path fill-rule="evenodd" clip-rule="evenodd" d="M6.5 5.25C5.80964 5.25 5.25 5.80964 5.25 6.5C5.25 7.19036 5.80964 7.75 6.5 7.75H7.75V6.5C7.75 5.80964 7.19036 5.25 6.5 5.25ZM10.25 7.75V6.5C10.25 4.42893 8.57107 2.75 6.5 2.75C4.42893 2.75 2.75 4.42893 2.75 6.5C2.75 8.57107 4.42893 10.25 6.5 10.25H7.75V13.75H6.5C4.42893 13.75 2.75 15.4289 2.75 17.5C2.75 19.5711 4.42893 21.25 6.5 21.25C8.57107 21.25 10.25 19.5711 10.25 17.5V16.25H13.75V17.5C13.75 19.5711 15.4289 21.25 17.5 21.25C19.5711 21.25 21.25 19.5711 21.25 17.5C21.25 15.4289 19.5711 13.75 17.5 13.75H16.25V10.25H17.5C19.5711 10.25 21.25 8.57107 21.25 6.5C21.25 4.42893 19.5711 2.75 17.5 2.75C15.4289 2.75 13.75 4.42893 13.75 6.5V7.75H10.25ZM10.25 10.25V13.75H13.75V10.25H10.25ZM16.25 7.75H17.5C18.1904 7.75 18.75 7.19036 18.75 6.5C18.75 5.80964 18.1904 5.25 17.5 5.25C16.8096 5.25 16.25 5.80964 16.25 6.5V7.75ZM16.25 16.25V17.5C16.25 18.1904 16.8096 18.75 17.5 18.75C18.1904 18.75 18.75 18.1904 18.75 17.5C18.75 16.8096 18.1904 16.25 17.5 16.25H16.25ZM7.75 16.25H6.5C5.80964 16.25 5.25 16.8096 5.25 17.5C5.25 18.1904 5.80964 18.75 6.5 18.75C7.19036 18.75 7.75 18.1904 7.75 17.5V16.25Z" fill="#002B51"/>
</svg>
